Newaita-dark/mimetypes/24/application-x-m4.svg

<?xml version="1.0" encoding="UTF-8"?>
<svg xmlns="http://www.w3.org/2000/svg" xmlns:xlink="http://www.w3.org/1999/xlink" width="24px" height="24px" viewBox="0 0 24 24" version="1.1">
<defs>
<linearGradient id="linear0" gradientUnits="userSpaceOnUse" x1="254" y1="233.5" x2="254" y2="254.666672" gradientTransform="matrix(0.0468795,0,0,0.0468795,0.49614,10.079089)">
<stop offset="0" style="stop-color:rgb(0%,0%,0%);stop-opacity:0.27451;"/>
<stop offset="1" style="stop-color:rgb(0%,0%,0%);stop-opacity:0;"/>
</linearGradient>
<radialGradient id="radial0" gradientUnits="userSpaceOnUse" cx="450.908936" cy="189.579361" fx="450.908936" fy="189.579361" r="21.166656" gradientTransform="matrix(0.000000130628,-0.0585994,-0.105479,-0.0000000761539,37.113427,47.696499)">
<stop offset="0" style="stop-color:rgb(0%,0%,0%);stop-opacity:0.313726;"/>
<stop offset="0.222222" style="stop-color:rgb(0%,0%,0%);stop-opacity:0.27451;"/>
<stop offset="1" style="stop-color:rgb(0%,0%,0%);stop-opacity:0;"/>
</radialGradient>
<radialGradient id="radial1" gradientUnits="userSpaceOnUse" cx="450.908936" cy="189.579361" fx="450.908936" fy="189.579361" r="21.166656" gradientTransform="matrix(-0.000000130628,0.0585994,0.105479,0.0000000761539,-13.794787,-5.645609)">
<stop offset="0" style="stop-color:rgb(0%,0%,0%);stop-opacity:0.313726;"/>
<stop offset="0.222222" style="stop-color:rgb(0%,0%,0%);stop-opacity:0.27451;"/>
<stop offset="1" style="stop-color:rgb(0%,0%,0%);stop-opacity:0;"/>
</radialGradient>
<radialGradient id="radial2" gradientUnits="userSpaceOnUse" cx="450.908936" cy="189.579361" fx="450.908936" fy="189.579361" r="21.166656" gradientTransform="matrix(-0.000000130628,-0.0585994,0.105479,-0.0000000761539,-13.794787,47.696499)">
<stop offset="0" style="stop-color:rgb(0%,0%,0%);stop-opacity:0.313726;"/>
<stop offset="0.222222" style="stop-color:rgb(0%,0%,0%);stop-opacity:0.27451;"/>
<stop offset="1" style="stop-color:rgb(0%,0%,0%);stop-opacity:0;"/>
</radialGradient>
<radialGradient id="radial3" gradientUnits="userSpaceOnUse" cx="450.908936" cy="189.579361" fx="450.908936" fy="189.579361" r="21.166656" gradientTransform="matrix(0.000000130628,0.0585994,-0.105479,0.0000000761539,37.113425,-5.64561)">
<stop offset="0" style="stop-color:rgb(0%,0%,0%);stop-opacity:0.313726;"/>
<stop offset="0.222222" style="stop-color:rgb(0%,0%,0%);stop-opacity:0.27451;"/>
<stop offset="1" style="stop-color:rgb(0%,0%,0%);stop-opacity:0;"/>
</radialGradient>
<linearGradient id="linear1" gradientUnits="userSpaceOnUse" x1="940" y1="1695.118164" x2="940" y2="175.118118" gradientTransform="matrix(0.0124035,0,0,0.0124035,0,0.00000000000000141)">
<stop offset="0" style="stop-color:rgb(87.843138%,87.843138%,87.843138%);stop-opacity:1;"/>
<stop offset="1" style="stop-color:rgb(93.333334%,93.333334%,93.333334%);stop-opacity:1;"/>
</linearGradient>
<linearGradient id="linear2" gradientUnits="userSpaceOnUse" x1="249.189392" y1="236.523788" x2="249.189423" y2="254.666687" gradientTransform="matrix(0.0224206,0,0,0.082039,11.281818,-12.394717)">
<stop offset="0" style="stop-color:rgb(0%,0%,0%);stop-opacity:0.27451;"/>
<stop offset="1" style="stop-color:rgb(0%,0%,0%);stop-opacity:0;"/>
</linearGradient>
<linearGradient id="linear3" gradientUnits="userSpaceOnUse" x1="338.666656" y1="233.5" x2="338.666656" y2="-168.666672" gradientTransform="matrix(0.0468795,0,0,0.0468795,0,10.079087)">
<stop offset="0" style="stop-color:rgb(61.960787%,61.960787%,61.960787%);stop-opacity:1;"/>
<stop offset="1" style="stop-color:rgb(74.117649%,74.117649%,74.117649%);stop-opacity:1;"/>
</linearGradient>
<linearGradient id="linear4" gradientUnits="userSpaceOnUse" x1="400" y1="1695.118164" x2="400" y2="175.118088" gradientTransform="matrix(0.264583,0,0,0.264583,-0.00000233333,-214.999771)">
<stop offset="0" style="stop-color:rgb(61.960787%,61.960787%,61.960787%);stop-opacity:1;"/>
<stop offset="1" style="stop-color:rgb(74.117649%,74.117649%,74.117649%);stop-opacity:1;"/>
</linearGradient>
</defs>
<g id="surface1">
<path style=" stroke:none;fill-rule:nonzero;fill:url(#linear0);" d="M 5.953125 21.027344 L 17.363281 21.027344 L 17.363281 22.019531 L 5.953125 22.019531 Z M 5.953125 21.027344 "/>
<path style=" stroke:none;fill-rule:nonzero;fill:url(#radial0);" d="M 17.363281 21.027344 L 19.347656 21.027344 L 19.347656 20.03125 L 17.363281 20.03125 Z M 17.363281 21.027344 "/>
<path style=" stroke:none;fill-rule:nonzero;fill:url(#radial1);" d="M 5.953125 21.027344 L 3.96875 21.027344 L 3.96875 22.019531 L 5.953125 22.019531 Z M 5.953125 21.027344 "/>
<path style=" stroke:none;fill-rule:nonzero;fill:url(#radial2);" d="M 5.953125 21.027344 L 3.96875 21.027344 L 3.96875 20.03125 L 5.953125 20.03125 Z M 5.953125 21.027344 "/>
<path style=" stroke:none;fill-rule:nonzero;fill:url(#radial3);" d="M 17.363281 21.027344 L 19.347656 21.027344 L 19.347656 22.019531 L 17.363281 22.019531 Z M 17.363281 21.027344 "/>
<path style=" stroke:none;fill-rule:nonzero;fill:url(#linear1);" d="M 13.90625 2.171875 L 4.960938 2.171875 C 4.410156 2.171875 3.96875 2.613281 3.96875 3.164062 L 3.96875 20.03125 C 3.96875 20.582031 4.410156 21.027344 4.960938 21.027344 L 18.355469 21.027344 C 18.90625 21.027344 19.347656 20.582031 19.347656 20.03125 L 19.347656 7.613281 Z M 13.90625 2.171875 "/>
<path style=" stroke:none;fill-rule:nonzero;fill:rgb(0%,0%,0%);fill-opacity:0.235294;" d="M 3.96875 19.648438 L 3.96875 20.03125 C 3.96875 20.582031 4.410156 21.027344 4.960938 21.027344 L 18.355469 21.027344 C 18.90625 21.027344 19.347656 20.582031 19.347656 20.03125 L 19.347656 19.648438 C 19.347656 20.199219 18.90625 20.640625 18.355469 20.640625 L 4.960938 20.640625 C 4.410156 20.640625 3.96875 20.199219 3.96875 19.648438 Z M 3.96875 19.648438 "/>
<path style=" stroke:none;fill-rule:nonzero;fill:rgb(100%,100%,100%);fill-opacity:0.784314;" d="M 4.960938 2.171875 C 4.410156 2.171875 3.96875 2.613281 3.96875 3.164062 L 3.96875 3.535156 C 3.96875 2.988281 4.410156 2.542969 4.960938 2.542969 L 13.90625 2.542969 L 19.347656 7.988281 L 19.347656 7.613281 L 13.90625 2.171875 Z M 4.960938 2.171875 "/>
<path style=" stroke:none;fill-rule:nonzero;fill:url(#linear2);" d="M 13.890625 6.761719 L 18.605469 6.761719 L 19.347656 7.503906 L 19.347656 8.496094 L 13.890625 8.496094 Z M 13.890625 6.761719 "/>
<path style=" stroke:none;fill-rule:nonzero;fill:url(#linear3);" d="M 19.347656 7.613281 L 13.90625 2.171875 L 13.90625 6.621094 C 13.90625 7.171875 14.347656 7.613281 14.898438 7.613281 Z M 19.347656 7.613281 "/>
<path style=" stroke:none;fill-rule:nonzero;fill:rgb(0%,0%,0%);fill-opacity:0.235294;" d="M 13.90625 6.390625 L 13.90625 6.621094 C 13.90625 7.171875 14.347656 7.613281 14.898438 7.613281 L 19.347656 7.613281 L 19.117188 7.382812 L 14.898438 7.382812 C 14.347656 7.382812 13.90625 6.9375 13.90625 6.390625 Z M 13.90625 6.390625 "/>
<path style=" stroke:none;fill-rule:nonzero;fill:rgb(100%,100%,100%);fill-opacity:0.392157;" d="M 13.90625 2.171875 L 13.90625 2.542969 L 18.976562 7.613281 L 19.347656 7.613281 Z M 13.90625 2.171875 "/>
<path style=" stroke:none;fill-rule:nonzero;fill:rgb(12.941177%,12.941177%,12.941177%);fill-opacity:1;" d="M 13.90625 2.101562 C 13.867188 2.101562 13.835938 2.132812 13.835938 2.171875 L 13.835938 6.621094 C 13.835938 7.210938 14.3125 7.683594 14.898438 7.683594 L 19.347656 7.683594 C 19.378906 7.683594 19.402344 7.667969 19.414062 7.640625 C 19.425781 7.617188 19.417969 7.585938 19.398438 7.566406 L 13.957031 2.121094 C 13.941406 2.109375 13.925781 2.101562 13.90625 2.101562 Z M 13.976562 2.339844 L 19.179688 7.542969 L 14.898438 7.542969 C 14.386719 7.542969 13.976562 7.132812 13.976562 6.621094 Z M 13.976562 2.339844 "/>
<path style=" stroke:none;fill-rule:nonzero;fill:rgb(12.941177%,12.941177%,12.941177%);fill-opacity:1;" d="M 4.960938 2.101562 C 4.375 2.101562 3.898438 2.578125 3.898438 3.164062 L 3.898438 20.03125 C 3.898438 20.621094 4.375 21.097656 4.960938 21.097656 L 18.355469 21.097656 C 18.945312 21.097656 19.417969 20.621094 19.417969 20.03125 L 19.417969 7.613281 C 19.417969 7.597656 19.414062 7.578125 19.398438 7.566406 L 13.957031 2.121094 C 13.941406 2.109375 13.925781 2.101562 13.90625 2.101562 Z M 4.960938 2.242188 L 13.878906 2.242188 L 19.277344 7.644531 L 19.277344 20.03125 C 19.277344 20.546875 18.871094 20.957031 18.355469 20.957031 L 4.960938 20.957031 C 4.449219 20.957031 4.039062 20.546875 4.039062 20.03125 L 4.039062 3.164062 C 4.039062 2.652344 4.449219 2.242188 4.960938 2.242188 Z M 4.960938 2.242188 "/>
<path style="fill-rule:nonzero;fill:url(#linear4);stroke-width:3;stroke-linecap:round;stroke-linejoin:round;stroke:rgb(12.941177%,12.941177%,12.941177%);stroke-opacity:1;stroke-miterlimit:4;" d="M 243.393424 -31.100895 C 240.477036 -31.100895 238.143925 -28.684459 238.143925 -25.768071 L 238.143925 -3.43687 C 232.811101 -2.270315 227.811578 -0.18718 223.312008 2.645883 L 207.563512 -13.102614 C 205.480378 -15.185748 202.147363 -15.185748 200.064228 -13.102614 L 192.564944 -5.60333 C 190.48181 -3.603521 190.48181 -0.270506 192.564944 1.812629 L 208.396766 17.64445 C 205.563703 22.060695 203.480569 27.060218 202.230688 32.393042 L 179.899487 32.393042 C 176.983099 32.393042 174.649988 34.809478 174.649988 37.725866 L 174.649988 48.308189 C 174.649988 51.224577 176.983099 53.557687 179.899487 53.557687 L 202.230688 53.557687 C 203.480569 58.890511 205.563703 63.890034 208.396766 68.389604 L 192.564944 84.1381 C 190.48181 86.221235 190.48181 89.55425 192.564944 91.637384 L 200.064228 99.136668 C 202.147363 101.219803 205.480378 101.219803 207.563512 99.136668 L 223.312008 83.304847 C 227.811578 86.137909 232.811101 88.221044 238.143925 89.470924 L 238.143925 111.802125 C 238.143925 114.718513 240.477036 117.051624 243.393424 117.051624 L 253.975747 117.051624 C 256.892135 117.051624 259.308571 114.718513 259.308571 111.802125 L 259.308571 89.470924 C 264.641395 88.221044 269.640917 86.137909 274.057162 83.304847 L 289.888984 99.136668 C 291.972118 101.219803 295.305133 101.219803 297.388268 99.136668 L 304.804226 91.637384 C 306.88736 89.55425 306.88736 86.221235 304.804226 84.1381 L 289.05573 68.389604 C 291.888793 63.890034 293.971927 58.890511 295.138482 53.557687 L 317.469683 53.557687 C 320.469397 53.557687 322.802507 51.224577 322.802507 48.308189 L 322.802507 37.725866 C 322.802507 34.809478 320.469397 32.393042 317.469683 32.393042 L 295.138482 32.393042 C 293.971927 27.060218 291.888793 22.060695 289.05573 17.64445 L 304.804226 1.812629 C 306.88736 -0.270506 306.88736 -3.603521 304.804226 -5.60333 L 297.388268 -13.102614 C 295.305133 -15.185748 291.972118 -15.185748 289.888984 -13.102614 L 274.057162 2.645883 C 269.640917 -0.18718 264.641395 -2.270315 259.308571 -3.43687 L 259.308571 -25.768071 C 259.308571 -28.684459 256.892135 -31.100895 253.975747 -31.100895 Z M 248.726248 21.810719 C 260.475126 21.810719 269.890893 31.309812 269.890893 42.975365 C 269.890893 54.724243 260.475126 64.14001 248.726248 64.14001 C 236.97737 64.14001 227.561602 54.724243 227.561602 42.975365 C 227.561602 31.309812 236.97737 21.810719 248.726248 21.810719 Z M 248.726248 21.810719 " transform="matrix(0.0468795,0,0,0.0468795,0,10.079087)"/>
</g>
</svg>

<svg xmlns="http://www.w3.org/2000/svg" width="32" height="32" viewBox="0 0 24 24"><defs><linearGradient id="a" gradientUnits="userSpaceOnUse" x1="254" y1="233.5" x2="254" y2="254.667" gradientTransform="matrix(.04688 0 0 .04688 .496 10.08)"><stop offset="0" stop-opacity=".275"/><stop offset="1" stop-opacity="0"/></linearGradient><radialGradient id="b" gradientUnits="userSpaceOnUse" cx="450.909" cy="189.579" fx="450.909" fy="189.579" r="21.167" gradientTransform="matrix(0 -.0586 -.10548 0 37.113 47.696)"><stop offset="0" stop-opacity=".314"/><stop offset=".222" stop-opacity=".275"/><stop offset="1" stop-opacity="0"/></radialGradient><radialGradient id="c" gradientUnits="userSpaceOnUse" cx="450.909" cy="189.579" fx="450.909" fy="189.579" r="21.167" gradientTransform="matrix(0 .0586 .10548 0 -13.795 -5.646)"><stop offset="0" stop-opacity=".314"/><stop offset=".222" stop-opacity=".275"/><stop offset="1" stop-opacity="0"/></radialGradient><radialGradient id="d" gradientUnits="userSpaceOnUse" cx="450.909" cy="189.579" fx="450.909" fy="189.579" r="21.167" gradientTransform="matrix(0 -.0586 .10548 0 -13.795 47.696)"><stop offset="0" stop-opacity=".314"/><stop offset=".222" stop-opacity=".275"/><stop offset="1" stop-opacity="0"/></radialGradient><radialGradient id="e" gradientUnits="userSpaceOnUse" cx="450.909" cy="189.579" fx="450.909" fy="189.579" r="21.167" gradientTransform="matrix(0 .0586 -.10548 0 37.113 -5.646)"><stop offset="0" stop-opacity=".314"/><stop offset=".222" stop-opacity=".275"/><stop offset="1" stop-opacity="0"/></radialGradient><linearGradient id="f" gradientUnits="userSpaceOnUse" x1="940" y1="1695.118" x2="940" y2="175.118" gradientTransform="scale(.0124)"><stop offset="0" stop-color="#e0e0e0"/><stop offset="1" stop-color="#eee"/></linearGradient><linearGradient id="g" gradientUnits="userSpaceOnUse" x1="249.189" y1="236.524" x2="249.189" y2="254.667" gradientTransform="matrix(.02242 0 0 .08204 11.282 -12.395)"><stop offset="0" stop-opacity=".275"/><stop offset="1" stop-opacity="0"/></linearGradient><linearGradient id="h" gradientUnits="userSpaceOnUse" x1="338.667" y1="233.5" x2="338.667" y2="-168.667" gradientTransform="matrix(.04688 0 0 .04688 0 10.08)"><stop offset="0" stop-color="#9e9e9e"/><stop offset="1" stop-color="#bdbdbd"/></linearGradient><linearGradient id="i" gradientUnits="userSpaceOnUse" x1="400" y1="1695.118" x2="400" y2="175.118" gradientTransform="matrix(.26458 0 0 .26458 0 -215)"><stop offset="0" stop-color="#9e9e9e"/><stop offset="1" stop-color="#bdbdbd"/></linearGradient></defs><path d="M5.953 21.027h11.41v.993H5.953zm0 0" fill="url(#a)"/><path d="M17.363 21.027h1.985v-.996h-1.985zm0 0" fill="url(#b)"/><path d="M5.953 21.027H3.97v.993h1.984zm0 0" fill="url(#c)"/><path d="M5.953 21.027H3.97v-.996h1.984zm0 0" fill="url(#d)"/><path d="M17.363 21.027h1.985v.993h-1.985zm0 0" fill="url(#e)"/><path d="M13.906 2.172H4.961a.989.989 0 0 0-.992.992v16.867c0 .551.441.996.992.996h13.394c.551 0 .993-.445.993-.996V7.613zm0 0" fill="url(#f)"/><path d="M3.969 19.648v.383c0 .551.441.996.992.996h13.394c.551 0 .993-.445.993-.996v-.383c0 .551-.442.993-.993.993H4.961a.989.989 0 0 1-.992-.993zm0 0" fill-opacity=".235"/><path d="M4.96 2.172a.989.989 0 0 0-.991.992v.371c0-.547.441-.992.992-.992h8.945l5.442 5.445v-.375l-5.442-5.441zm0 0" fill="#fff" fill-opacity=".784"/><path d="M13.89 6.762h4.715l.743.742v.992H13.89zm0 0" fill="url(#g)"/><path d="M19.348 7.613l-5.442-5.441v4.45c0 .55.442.991.992.991zm0 0" fill="url(#h)"/><path d="M13.906 6.39v.231c0 .55.442.992.992.992h4.45l-.23-.23h-4.22a.991.991 0 0 1-.992-.992zm0 0" fill-opacity=".235"/><path d="M13.906 2.172v.371l5.07 5.07h.372zm0 0" fill="#fff" fill-opacity=".392"/><path d="M13.906 2.102a.07.07 0 0 0-.07.07v4.45c0 .589.476 1.062 1.062 1.062h4.45a.068.068 0 0 0 .066-.043c.012-.024.004-.055-.016-.075l-5.441-5.445a.082.082 0 0 0-.05-.02zm.07.238l5.204 5.203h-4.282a.919.919 0 0 1-.921-.922zm0 0" fill="#212121"/><path d="M4.96 2.102c-.585 0-1.062.476-1.062 1.062v16.867c0 .59.477 1.067 1.063 1.067h13.394c.59 0 1.063-.477 1.063-1.067V7.613c0-.015-.004-.035-.02-.047l-5.441-5.445a.082.082 0 0 0-.05-.02zm0 .14h8.919l5.398 5.403V20.03a.917.917 0 0 1-.922.926H4.961a.92.92 0 0 1-.922-.926V3.164c0-.512.41-.922.922-.922zm0 0" fill="#212121"/><path d="M243.393-31.1c-2.916 0-5.25 2.416-5.25 5.332v22.331a46.45 46.45 0 0 0-14.831 6.083l-15.748-15.749a5.28 5.28 0 0 0-7.5 0l-7.5 7.5c-2.082 2-2.082 5.332 0 7.416l15.833 15.831c-2.833 4.417-4.916 9.416-6.166 14.749h-22.332c-2.916 0-5.249 2.416-5.249 5.333v10.582a5.228 5.228 0 0 0 5.25 5.25h22.33c1.25 5.333 3.334 10.332 6.167 14.832l-15.832 15.748a5.28 5.28 0 0 0 0 7.5l7.5 7.499a5.28 5.28 0 0 0 7.499 0l15.748-15.832c4.5 2.833 9.5 4.916 14.832 6.166v22.331a5.228 5.228 0 0 0 5.25 5.25h10.582c2.916 0 5.333-2.333 5.333-5.25V89.471c5.332-1.25 10.332-3.333 14.748-6.166l15.832 15.832a5.28 5.28 0 0 0 7.5 0l7.415-7.5a5.28 5.28 0 0 0 0-7.499L289.056 68.39a46.45 46.45 0 0 0 6.082-14.832h22.332c3 0 5.333-2.333 5.333-5.25V37.726a5.316 5.316 0 0 0-5.333-5.333h-22.332c-1.166-5.333-3.25-10.332-6.082-14.749l15.748-15.831c2.083-2.084 2.083-5.417 0-7.416l-7.416-7.5a5.28 5.28 0 0 0-7.499 0L274.057 2.646c-4.416-2.833-9.416-4.916-14.748-6.083v-22.331c0-2.916-2.417-5.333-5.333-5.333zm5.333 52.91c11.75 0 21.165 9.5 21.165 21.165a21.088 21.088 0 0 1-21.165 21.165 21.088 21.088 0 0 1-21.164-21.165c0-11.665 9.415-21.164 21.164-21.164zm0 0" transform="matrix(.04688 0 0 .04688 0 10.08)" fill="url(#i)" stroke-width="3" stroke-linecap="round" stroke-linejoin="round" stroke="#212121"/></svg>
